svgs/sharp-light/battery-empty.svg

<svg xmlns="http://www.w3.org/2000/svg" viewBox="0 0 576 512"><!--! Font Awesome Pro 6.6.0 by @fontawesome - https://fontawesome.com License - https://fontawesome.com/license (Commercial License) Copyright 2024 Fonticons, Inc. --><path d="M32 128l0 256 448 0 0-256L32 128zM0 96l32 0 448 0 32 0 0 32 0 256 0 32-32 0L32 416 0 416l0-32L0 128 0 96zm544 96l32 0 0 32 0 64 0 32-32 0 0-32 0-64 0-32z"/></svg>

<svg xmlns="http://www.w3.org/2000/svg" viewBox="0 0 576 512"><!--! Font Awesome Pro 6.4.0 by @fontawesome - https://fontawesome.com License - https://fontawesome.com/license (Commercial License) Copyright 2023 Fonticons, Inc. --><path d="M32 128V384H480V128H32zM0 96H32 480h32v32V384v32H480 32 0V384 128 96zm544 96h32v32 64 32H544V288 224 192z"/></svg>
